!!!COM: Palestrina, Giovanni Perluigi da
!!!OPR: Missa Beatus Laurentius
!!!OMD: Credo
!!!OTL: First Section
**kern	**kern	**kern	**kern	**kern
*Ibass	*Itenor	*Itenor	*Icalto	*Icant
!Bassus	!Tenor 2	!Tenor 1	!Altus	!Cantus
*clefF4	*clefGv2	*clefGv2	*clefG2	*clefG2
*k[]	*k[]	*k[]	*k[]	*k[]
*G:mix	*G:mix	*G:mix	*G:mix	*G:mix
*M4/2	*M4/2	*M4/2	*M4/2	*M4/2
=1	=1	=1	=1	=1
0G	0d	0B	0g	0r
=2	=2	=2	=2	=2
2C	1e	2.c	1g	0r
2.c	.	.	.	.
.	.	4d	.	.
.	2.A	1e	1cc	.
4B	.	.	.	.
4A	.	.	.	.
4G	4B	.	.	.
=3	=3	=3	=3	=3
1F	1c	1f	1a	0r
2G	2B	2d	2g	.
2F	2A	2d	[2a	.
=4	=4	=4	=4	=4
1G	2.B	0d	4a]	0dd
.	.	.	4g	.
.	.	.	1g	.
.	8A	.	.	.
.	8G	.	.	.
1D	1A	.	.	.
.	.	.	2f#	.
=5	=5	=5	=5	=5
2r	2G	2B	2g	1dd
2G	1d	2B	2g	.
1G	.	1d	1b	1gg
.	[2g	.	.	.
=6	=6	=6	=6	=6
4C	2g]	2c	2cc	2ee
4D	.	.	.	.
4E	2g	2G	2cc	2ee
4F	.	.	.	.
2G	1g	2B	2b	2dd
2C	.	2c	2e	[2ee
=7	=7	=7	=7	=7
2D	2f	0A	0a	4ee]
.	.	.	.	4dd
2D	2f	.	.	1dd
1A	1e	.	.	.
.	.	.	.	2cc#
=8	=8	=8	=8	=8
1D	1d	2A	2f#	2dd
.	.	1d	1a	1dd
1r	1r	.	.	.
.	.	2e	2g	2b
=9	=9	=9	=9	=9
0r	0r	2f#	2a	2dd
.	.	2g	2b	2dd
.	.	1c	1cc	1ee
=10	=10	=10	=10	=10
0r	1r	2G	2b	2dd
.	.	2A	2a	2cc
.	2r	1e	2g	1b
.	[2g	.	2b	.
=11	=11	=11	=11	=11
0r	2g]	2.c	1cc	2.ee
.	2e	.	.	.
.	.	4c	.	4ee
.	2g	2c	2.cc	2ee
.	2a	2A	.	2ff
.	.	.	4cc	.
=12	=12	=12	=12	=12
1r	2g	2c	2cc	2ee
.	2f	2d	2a	2dd
2r	2e	2A	2a	2cc#
[2A	[2e	[2c#	[2a	[2ee
=13	=13	=13	=13	=13
2A]	2e]	2c#]	2a]	2ee]
2A	2e	2c#	2a	2ee
2A	2c#	2e	2a	2ee
2D	2d	2d	2a	2ff
=14	=14	=14	=14	=14
2A	2e	2c#	2.a	2ee
2D	2f#	2d	.	2dd
.	.	.	4a	.
1G	1g	1d	1b	1dd
=15	=15	=15	=15	=15
1C	1g	1c	1cc	1ee
2C	1e	1c	1g	1cc
[2c	.	.	.	.
=16	=16	=16	=16	=16
2c]	0d	0G	0g	0dd
4B	.	.	.	.
4A	.	.	.	.
1B	.	.	.	.
=17	=17	=17	=17	=17
1c	2c	0g	2e	2ee
.	2.c	.	2.cc	2.ee
1C	.	.	.	.
.	4c	.	4cc	4ee
.	2e	.	2cc	2ee
=18	=18	=18	=18	=18
1r	1g	0r	1b	2dd
.	.	.	.	1ee
2r	[1a	.	[1cc	.
[2F	.	.	.	[2ff
=19	=19	=19	=19	=19
4F]	1a]	0r	0cc]	2ff]
4F	.	.	.	.
2A	.	.	.	4ee
.	.	.	.	4dd
2c	1g	.	.	1ee
2c	.	.	.	.
=20	=20	=20	=20	=20
2d	2f#	0r	2a	1dd
2G	1g	.	2b	.
2d	.	.	2.a	2.dd
2d	2f#	.	.	.
.	.	.	4a	4dd
=21	=21	=21	=21	=21
1G	2g	1r	1b	2dd
.	1g	.	.	1b
1r	.	2.e	1r	.
.	2e	.	.	2g
.	.	4e	.	.
=22	=22	=22	=22	=22
0r	2f#	2d	0r	2a
.	2g	2B	.	2b
.	1a	1A	.	1cc
=23	=23	=23	=23	=23
2r	2g	2e	2r	1b
2.G	2.g	2.d	2.b	.
.	.	.	.	1r
4G	4g	4d	4b	.
2E	2g	2e	2g	.
=24	=24	=24	=24	=24
2F	2f	2c	2a	0r
2G	2d	2g	2b	.
2A	2.c	2e	2.cc	.
2A	.	2f#	.	.
.	4c	.	4cc	.
=25	=25	=25	=25	=25
1G	1d	2g	2b	2r
.	.	2g	2g	2b
1r	1r	2f	2a	2cc
.	.	2d	2b	2dd
=26	=26	=26	=26	=26
1r	1r	1c	1cc	1ee
2r	2r	2g	1b	2dd
2G	2B	2d	.	2g
=27	=27	=27	=27	=27
2F	2c	2f	0r	2a
2D	2d	2f	.	2b
2.C	2.e	2.g	.	2.cc
4C	4e	4g	.	4cc
=28	=28	=28	=28	=28
1G	2d	1g	2r	2b
.	1g	.	1b	1dd
1r	.	1r	.	.
.	2e	.	2g	2ee
=29	=29	=29	=29	=29
1r	1d	0r	1a	1ff
2r	2c	.	2cc	2ee
2c	2c	.	2cc	2ee
=30	=30	=30	=30	=30
2c	2e	1r	2.c	2ee
2A	2f	.	.	2cc
.	.	.	4d	.
[1G	2g	2r	2e	4b
.	.	.	.	4a
.	4G	2g	[2d	4b
.	4G	.	.	4cc
=31	=31	=31	=31	=31
0G]	2B	2g	2d]	2dd
.	2c	2e	2.g	1cc
.	2d	1d	.	.
.	.	.	4f	.
.	2g	.	2d	2b
=32	=32	=32	=32	=32
0C	2r	2c	2e	2cc
.	1g	1c	1cc	1ee
.	2g	2c	2cc	2ee
=33	=33	=33	=33	=33
0r	2g	2c	2cc	2ee
.	2g	2c	2cc	2ee
.	1g	1G	1b	1dd
=34	=34	=34	=34	=34
2r	2e	2A	2a	2cc
1F	1f	1A	1a	1cc
2F	2f	2A	2a	2cc
=35	=35	=35	=35	=35
2F	2c	2A	2a	2ff
2F	2d	2A	2a	2ff
2C	2e	1c	2g	2ee
2C	2g	.	2e	2ee
=36	=36	=36	=36	=36
1D	1f	2A	1a	1dd
.	.	2d	.	.
2A	2e	2c#	2a	2ee
[2D	[2f#	[2d	[2a	[2dd
=37	=37	=37	=37	=37
2D]	2f#]	2d]	2a]	2dd]
2G	2g	2d	2b	2dd
2.C	2.g	2.c	2.cc	2.ee
4C	4g	4c	4cc	4ee
=38	=38	=38	=38	=38
2C	2g	2c	1cc	2ee
4F	1a	4A	.	1ff
4G	.	4B	.	.
4A	.	4c	1cc	.
4B	.	4d	.	.
[2c	4g	4e	.	4ee
.	4f	4f	.	4dd
=39	=39	=39	=39	=39
2c]	2e	2g	2cc	2ee
2C	2g	2e	2cc	2cc
[1G	1g	1d	1b	[1dd
=40	=40	=40	=40	=40
1G]	2r	2r	2r	1dd]
.	2d	2B	2g	.
1r	2c	2e	2g	1r
.	2B	2d	2g	.
=41	=41	=41	=41	=41
0r	1c	1e	2a	0r
.	.	.	1g	.
.	2B	2d	.	.
.	2A	2c	2f#	.
=42	=42	=42	=42	=42
2r	1G	2d	2g	2r
2G	.	2g	2b	2dd
2A	1r	2f	2a	2dd
2A	.	2e	2a	2cc#
=43	=43	=43	=43	=43
1D	0r	1f	1a	1dd
2E	.	2e	2g	2cc
2G	.	2d	2g	2b
=44	=44	=44	=44	=44
1A	1r	1c	1e	1cc
2G	2r	2d	2g	2b
2G	2B	2d	2g	2dd
=45	=45	=45	=45	=45
1G	1d	1B	1g	2dd
.	.	.	.	2g
1C	2.e	1c	2g	4gg
.	.	.	.	4ff
.	.	.	4c	4ee
.	4f	.	4d	4dd
=46	=46	=46	=46	=46
1C	2g	1c	4e	4cc
.	.	.	4f	4dd
.	2G	.	1g	2ee
1D	1d	1A	.	1dd
.	.	.	2f#	.
=47	=47	=47	=47	=47
1G	1d	1G	1g	1b
1r	1r	1r	1r	1r
=48	=48	=48	=48	=48
1G	1d	1B	1g	1b
2G	2d	2B	2g	2dd
2G	2g	2B	2g	2dd
=49	=49	=49	=49	=49
1D	1f#	1d	1a	1dd
1G	1g	1d	1b	1dd
=50	=50	=50	=50	=50
2C	2g	1c	2cc	0ee
2c	2e	.	2g	.
2c	2e	2r	1g	.
2c	2e	2c	.	.
=51	=51	=51	=51	=51
1A	1f	2c	2a	0r
.	.	2c	2a	.
1G	1g	2d	1b-	.
.	.	2e	.	.
=52	=52	=52	=52	=52
1F	2c	1f	2a	2r
.	1f	.	1a	1cc
1r	.	2.c	.	.
.	2e	.	2g	2cc
.	.	4c	.	.
=53	=53	=53	=53	=53
0r	2a	2f	2f	2cc
.	2g	2e	2g	2cc
.	2f	2d	2a	2dd
.	2f	2d	2b	2dd
=54	=54	=54	=54	=54
1r	1g	1c	1cc	1ee
1C	1c	1g	1cc	1ee
=55	=55	=55	=55	=55
1G	1d	1g	1b	1dd
1G	1B	1d	1g	1g
=56	=56	=56	=56	=56
1D	1A	1d	1f#	1a
1D	1A	1d	1f#	1a
=57	=57	=57	=57	=57
0G	0G	0d	0g	0b
*-	*-	*-	*-	*-
!!!CDT: 1525/^1526/-1594/2/2
!!!OCY: Italia
!!!AGN: Mass (Paraphrase)
!!!AST: renaissance, vocal
!!!ASW: Antiphon
!!!PWK: Masses, Book 8
!!!RNB: Cadence finals: C
!!!YOR: Le Opere Complete, v. 24, p. 194
!!!YOO: Rome, Italy: Fratelli Scalera
!!!END: 1992//
!!!EED: John Miller
!!!YEC: Copyright 2000, John Miller
!!!YEN: United States of America
!!!YEM: Rights to all derivative electronic formats reserved.
!!!YEM: Refer to licensing agreement for further details.
!!!YEM: This file must be accompanied by the licensing agreement.
!!!YEM: A copy of the licensing agreement may be found at http://www.music-cog.ohio-state.edu/HumdrumDatabases/Palestrina/license.txt
!!!EMD: converted to Humdrum by Bret Aarden
